!!!COM:	la Rue, Pierre de
!!!CDT:	~1452///-1518/11/20
!!!OPR:	Missa Pro fidelibus defunctis
!!!ONM:	4
!!!OTL:	Offertorium
!!!AGN:	Mass; Offertorium
!!!SCT:	Rue1024d
!!!SCA:	Rue1024d
!!!voices-OPR:	5
!!!voices:	5
**kern	**kern	**kern	**kern	**kern
*Ivox	*Ivox	*Ivox	*Ivox	*Ivox
*I"Bassus	*I"Tenor2	*I"Tenor	*I"Contra	*I"Discantus
*I'B	*I'T2	*I'T	*I'C	*I'D
*staff5	*staff4	*staff3	*staff2	*staff1
*>[A,B,C,B]	*>[A,B,C,B]	*>[A,B,C,B]	*>[A,B,C,B]	*>[A,B,C,B]
*>A	*>A	*>A	*>A	*>A
*clefF4	*clefF4	*clefGv2	*clefGv2	*clefG2
*k[]	*k[]	*k[]	*k[]	*k[]
*M3/1	*M3/1	*M3/1	*M3/1	*M3/1
*met(C3)	*met(C3)	*met(3)	*met(C3)	*met(3)
!!primary-mensuration: met(C3)
=1-	=1-	=1-	=1-	=1-
!!section: Rex glorie
!!!OMD: Rex glorie
!!dominant mensuration should be MenC3 (the faster, MenCutC3 sort of MenC3, that is)
0.r	0.r	0.r	0c	0e
.	.	.	1B	1d
=2	=2	=2	=2	=2
0.r	0.r	0.r	1c	1e
.	.	.	1.A	1.f
.	.	.	2G/	2g/
=3	=3	=3	=3	=3
0.r	0.r	0.r	0G	0g
.	.	.	[1G	1r
=4	=4	=4	=4	=4
0.r	0.r	0.r	2G/]	1.d
.	.	.	2G/	.
.	.	.	0G	.
.	.	.	.	2d/
.	.	.	.	[1d
=5	=5	=5	=5	=5
0.r	0.r	0.r	1G	1d]
.	.	.	1G	1d
.	.	.	1F	1d
=6	=6	=6	=6	=6
0.r	0.r	0.r	1B-i	1d
.	.	.	1B-i	1d
.	.	.	[1A	1c
=7	=7	=7	=7	=7
0.r	0.r	0.r	1A]	1c
.	.	.	0F	1.f
.	.	.	.	2e/
=8	=8	=8	=8	=8
0.r	0.r	0.r	1.G	1e
.	.	.	.	1.d
.	.	.	2F/	.
.	.	.	[1F	.
.	.	.	.	2c/
=9	=9	=9	=9	=9
0.r	0.r	0.r	2F/]	1.c
.	.	.	2E/	.
.	.	.	2D/	.
.	.	.	2C/	2B/
.	.	.	1D	1B
=10	=10	=10	=10	=10
0.r	0.r	0.r	0C	0.c
.	.	.	1r	.
=11	=11	=11	=11	=11
0.r	0.r	0.r	1C	0.r
.	.	.	1D	.
.	.	.	1F	.
=12	=12	=12	=12	=12
0.r	0.r	0.r	1.E	1c
.	.	.	.	1d
.	.	.	2D/	.
.	.	.	[1D	1f
=13	=13	=13	=13	=13
0.r	0.r	0.r	2D/]	1.e
.	.	.	2C/	.
.	.	.	1C	.
.	.	.	.	2d/
.	.	.	1D	[1d
=14	=14	=14	=14	=14
0.r	0.r	0.r	1F	2d/]
.	.	.	.	2c/
.	.	.	1.E	0c
.	.	.	2D/	.
=15	=15	=15	=15	=15
0.r	0.r	0.r	1D	1.d
.	.	.	1.d	.
.	.	.	.	2e/
.	.	.	.	1f
.	.	.	2c\	.
=16	=16	=16	=16	=16
0.r	0.r	0.r	1c	1e
.	.	.	1d	1.f
.	.	.	1D	.
.	.	.	.	2e/
=17	=17	=17	=17	=17
0.r	0.r	0.r	1F	0d
.	.	.	0E	.
.	.	.	.	1c#i
=18	=18	=18	=18	=18
0.r	0.r	0.r	0D	0.d
.	.	.	1r	.
=19	=19	=19	=19	=19
0.r	0.r	0.r	0F	0.r
.	.	.	1C	.
=20	=20	=20	=20	=20
0.r	0.r	0.r	1D	0f
.	.	.	1.F	.
.	.	.	.	1c
.	.	.	2E/	.
=21	=21	=21	=21	=21
0.r	0.r	0.r	1D	1d
.	.	.	0A	1.f
.	.	.	.	2e/
=22	=22	=22	=22	=22
0.r	0.r	0.r	1.G	0e
.	.	.	2F/	.
.	.	.	2G/	[1d
.	.	.	2F/	.
=23	=23	=23	=23	=23
0.r	0.r	0.r	1G	1d]
.	.	.	1F	0d
.	.	.	[1D	.
=24	=24	=24	=24	=24
0.r	0.r	0.r	1D]	0f
.	.	.	0A	.
.	.	.	.	1c
=25	=25	=25	=25	=25
0.r	0.r	0.r	1G	1d
.	.	.	1F	1.f
.	.	.	[1G	.
.	.	.	.	2e/
=26	=26	=26	=26	=26
0.r	0.r	0.r	2G/]	1e
.	.	.	2F/	.
.	.	.	2G/	2d/
.	.	.	2A/	2c/
.	.	.	[1G	2d/
.	.	.	.	2c/
=27	=27	=27	=27	=27
0.r	0.r	0.r	2G/]	1.d
.	.	.	2F/	.
.	.	.	2G/	.
.	.	.	2A/	2c/
.	.	.	1G	1d
=28	=28	=28	=28	=28
0.r	0.r	0.r	1.c	1e
.	.	.	.	0d
.	.	.	2B\	.
.	.	.	1B	.
=29	=29	=29	=29	=29
0.r	0.r	0.r	1G	1.g
.	.	.	0A	.
.	.	.	.	2f#i/
.	.	.	.	1f#i
=30	=30	=30	=30	=30
0GG	0.r	0.r	0.G	0.g
1BB	.	.	.	.
=31	=31	=31	=31	=31
1C	0.r	0C	0.r	0.r
1C	.	.	.	.
[1AA	.	1E	.	.
=32	=32	=32	=32	=32
1AA]	0.r	1F	0.r	0.r
0AA	.	1F	.	.
.	.	1E	.	.
=33	=33	=33	=33	=33
0BB	0.r	0D	0.r	0.r
1AA	.	[1E	.	.
=34	=34	=34	=34	=34
1AA	0.r	1E]	0.r	0.r
0GG	.	1G	.	.
.	.	1E	.	.
=35	=35	=35	=35	=35
0GG	0.r	0D	0.r	0.r
[1GG	.	1r	.	.
=36	=36	=36	=36	=36
1GG]	0.r	0D	0.r	0.r
0FF	.	.	.	.
.	.	[1D	.	.
=37	=37	=37	=37	=37
1.BB-i	0.r	1D]	0.r	0.r
.	.	0C	.	.
2AA/	.	.	.	.
1AA	.	.	.	.
=38	=38	=38	=38	=38
1BB-i	0.r	1.F	0.r	0.r
1.C	.	.	.	.
.	.	2E/	.	.
.	.	1E	.	.
2BB-/	.	.	.	.
=39	=39	=39	=39	=39
1AA	0.r	1F	0.r	0.r
0GG	.	1.G	.	.
.	.	2F/	.	.
=40	=40	=40	=40	=40
1.C	0.r	1E	0.r	0.r
.	.	1.D	.	.
2BB/	.	.	.	.
1BB	.	.	.	.
.	.	2C/	.	.
=41	=41	=41	=41	=41
0C	0.r	0C	0.r	0.r
1r	.	1r	.	.
=42	=42	=42	=42	=42
0C	0.r	0G	0c	0e
[1C	.	[1A	1c	[1e
=43	=43	=43	=43	=43
1C]	0.r	1A]	1e	1e]
0D	.	0A	1.d	0f
.	.	.	2B\	.
=44	=44	=44	=44	=44
[0.GG	0.r	[0.G	[0.B	1.g
.	.	.	.	2f/
.	.	.	.	2e/
.	.	.	.	2d/
=45	=45	=45	=45	=45
0.GG]	0.r	0G]	0.B]	0d
.	.	1r	.	1r
=46	=46	=46	=46	=46
0D	0.r	0F	0A	0d
1GG	.	1G	1B	1d
=47	=47	=47	=47	=47
1GG	0.r	1G	1B	1d
0AA	.	1.E	0A	1.c#i
.	.	2D/	.	2d/
=48	=48	=48	=48	=48
1D	0.r	0.D	0A	0d
1r	.	.	.	.
1r	.	.	1r	1r
=49	=49	=49	=49	=49
0D	0.r	0A	0d	0f
[1D	.	[1A	[1d	[1f
=50	=50	=50	=50	=50
1D]	0.r	1A]	1d]	1f]
0F	.	0A	0c	0f
=51	=51	=51	=51	=51
1.C	0.r	0.G	1.c	0.e
2D\	.	.	2B\	.
1E	.	.	1c	.
=52	=52	=52	=52	=52
1F	0.r	1A	1A	1c
1.D	.	1.F	1.B	1.d
2C/	.	2G/	2c\	2e/
=53	=53	=53	=53	=53
0C	0.r	[0.G	0c	0e
1r	.	.	1r	1r
=54	=54	=54	=54	=54
0C	0.r	0.G]	0e	0.r
1C	.	.	1e	.
=55	=55	=55	=55	=55
0C	0.r	0.r	0e	0g
2BB/	.	.	2d\	1g
2AA/	.	.	2c\	.
=56	=56	=56	=56	=56
[0.GG	0.r	0B-i	0d	0g
.	.	1B-i	1G	2f/
.	.	.	.	2e/
=57	=57	=57	=57	=57
0.GG]	0.r	0B-i	0d	[0.d
.	.	2A/	2c\	.
.	.	2G/	2B\	.
=58	=58	=58	=58	=58
1.D	0.r	0F	0A	1d]
.	.	.	.	0f
2E\	.	.	.	.
1F	.	1F	1A	.
=59	=59	=59	=59	=59
1.C	0.r	0G	1.c	1.e
2BB/	.	.	2d\	2f/
1GG	.	1G	[1d	1g
=60	=60	=60	=60	=60
1D	0.r	0A	2d\]	1f
.	.	.	2c\	.
1AA	.	.	1c	1.e
[1BB-i	.	1F	1d	.
.	.	.	.	2d/
=61	=61	=61	=61	=61
1BB-]	0.r	1D	1G	0d
0AA	.	0E	0A	.
.	.	.	.	1c#i
=62	=62	=62	=62	=62
0.Dl	0.r	0.Dl	0.Al	0.dl
!!LO:LB:i:g=z
=63||	=63||	=63||	=63||	=63||
*>B	*>B	*>B	*>B	*>B
*clefF4	*clefF4	*clefGv2	*clefGv2	*clefG2
*k[]	*k[]	*k[]	*k[]	*k[]
*M3/1	*M3/1	*M3/1	*M3/1	*M3/1
*met(C3)	*met(O)	*met(3)	*met(C3)	*met(3)
!!primary-mensuration: met(C3)
!!section: Quam olim Abrahe
!!!OMD: Quam olim Abrahe
0D	0.r	0D	0d	0.r
1GG	.	1D	1B	.
=64	=64	=64	=64	=64
0AA	0E	0.C	1A	0a
.	.	.	2r	.
.	.	.	1c	.
1EE	1E	.	.	1g
.	.	.	2G/	.
=65	=65	=65	=65	=65
1r	0AA	0.C	2A/	0e
.	.	.	2E/	.
0AA	.	.	0A	.
.	1C	.	.	1e
=66	=66	=66	=66	=66
2GG/	2BB/	0.D	2B\	1.g
1BB-i	1GG	.	1d	.
2AA/	2AA/	.	2c\	2f/
1GG	1BB-i	.	2d\	1g
.	.	.	2G/	.
=67	=67	=67	=67	=67
0FF	0AA	0F	1c	1.a
.	.	.	1A	.
.	.	.	.	1f
1r	1BB-i	1r	2.F/	.
.	.	.	.	4e/
.	.	.	4G/	4d/
=68	=68	=68	=68	=68
2r	0.AA	2r	0A	1c
1FF	.	1F	.	.
.	.	.	.	2r
2FF/	.	2F/	.	1a
1FF	.	2.F/	2r	.
.	.	.	[2c\	2a/
.	.	4E/	.	.
=69	=69	=69	=69	=69
0AA	2r	0.E	2c\]	1a
.	1C	.	2c\	.
.	.	.	1.c	1.cc
.	2C/	.	.	.
1C	1E	.	.	.
.	.	.	2d\	2b\
=70	=70	=70	=70	=70
0.GG	0.G	1D	0d	0b
.	.	2D/	.	.
.	.	2D/	.	.
.	.	1D	2r	2r
.	.	.	2d\	2g/
=71	=71	=71	=71	=71
1r	0.r	1C	2e\	2g/
.	.	.	2e\	2g/
1r	.	1D	2d\	2f/
.	.	.	2d\	2f/
1GG	.	2r	[1B	1d
.	.	2D/	.	.
=72	=72	=72	=72	=72
2GG/	1GG	2D/	1B]	2r
2GG/	.	2D/	.	2g/
2EE/	2GG/	2.D/	1r	2g/
2EE/	2GG/	.	.	2g/
.	.	4C/	.	.
[1DD	1AA	1D	1r	2f/
.	.	.	.	2f/
=73	=73	=73	=73	=73
0.DD]	1D	2r	1r	1d
.	.	2F/	.	.
.	[0AA	2D/	2r	2r
.	.	2.F/	2d\	1a
.	.	.	2d\	.
.	.	4E/	.	.
.	.	4F/	2d\	2a/
.	.	4E/	.	.
=74	=74	=74	=74	=74
0.r	1AA]	2F/	2c\	1.a
.	.	2E/	4A/	.
.	.	.	4B\	.
.	1r	1F	2c\	.
.	.	.	1d	2f/
.	1C	1E	.	1g
.	.	.	2c#i\	.
=75	=75	=75	=75	=75
[0.DDl	2.F\	[0.Dl	[0.dl	[0.fl
.	4E\	.	.	.
.	2D\	.	.	.
.	2C/	.	.	.
.	1BB	.	.	.
=76	=76	=76	=76	=76
0.DD]	0.AAl	0.D]	0.d]	0.f]
!!LO:LB:i:g=z
!!LO:TX:rj:i:Y=40:t=fine
=77||	=77||	=77||	=77||	=77||
*>C	*>C	*>C	*>C	*>C
*clefF4	*clefF4	*clefGv2	*clefGv2	*clefG2
*k[]	*k[]	*k[]	*k[]	*k[]
*M3/1	*M3/1	*M3/1	*M3/1	*M3/1
*met(C3)	*met(C3)	*met(C3)	*met(C3)	*met(C3)
!!section: Tu suscipe
!!!OMD: Tu suscipe
0AA	0.r	[0.E	0.r	0.r
1BB	.	.	.	.
=78	=78	=78	=78	=78
1.C	0.r	0E]	0.r	0.r
2BB/	.	.	.	.
1AA	.	1F	.	.
=79	=79	=79	=79	=79
0GG	0.r	1.G	0.r	0.r
.	.	2F/	.	.
1r	.	1E	.	.
=80	=80	=80	=80	=80
*M2/1	*M2/1	*M2/1	*M2/1	*M2/1
*met(C)	*met()	*met()	*met()	*met()
!!primary-mensuration: met(C)
1GG	0r	3%4D	0r	0r
2GG/	.	.	.	.
.	.	3%2r	.	.
[2GG/	.	.	.	.
=81	=81	=81	=81	=81
*	*	*M2/1	*	*
*	*	*met(C)	*	*
2GG/]	0r	1D	0r	0r
2FF/	.	.	.	.
2GG/	.	2D/	.	.
[2BB-/	.	[2D/	.	.
=82	=82	=82	=82	=82
2BB-/]	0r	2D/]	0r	0r
2AA/	.	2C/	.	.
1GG	.	1D	.	.
=83	=83	=83	=83	=83
0FF	0r	2.F/	0r	0r
.	.	4E/	.	.
.	.	1D	.	.
=84	=84	=84	=84	=84
2r	0r	1C	0r	0r
1C	.	.	.	.
.	.	1r	.	.
2BB/	.	.	.	.
=85	=85	=85	=85	=85
1C	0r	2r	0r	0r
.	.	1G	.	.
1D	.	.	.	.
.	.	2F/	.	.
=86	=86	=86	=86	=86
1GG	0r	1G	0r	0r
2r	.	1A	.	.
[2C/	.	.	.	.
=87	=87	=87	=87	=87
2C/]	0r	0G	0r	0r
2BB/	.	.	.	.
2C/	.	.	.	.
[2GG/	.	.	.	.
=88	=88	=88	=88	=88
2GG/]	0r	1G	0r	0r
2C/	.	.	.	.
2BB/	.	2G/	.	.
[2C/	.	2G/	.	.
=89	=89	=89	=89	=89
4C/]	0r	2E/	0r	0r
4BB/	.	.	.	.
4AA/	.	1G	.	.
4GG/	.	.	.	.
2AA/	.	.	.	.
[2BB-i/	.	2F/	.	.
=90	=90	=90	=90	=90
4BB-/]	0r	4G/	0r	0r
4AA/	.	4F/	.	.
1D	.	4E/	.	.
.	.	4D/	.	.
.	.	1E	.	.
2C#i/	.	.	.	.
=91	=91	=91	=91	=91
0D	0r	0D	3%4A	0r
.	.	.	3%2B	.
=92	=92	=92	=92	=92
*M3/1	*M3/1	*M3/1	*M3/1	*M3/1
*met(C3)	*met()	*met(C3)	*met()	*met()
!!primary-mensuration: met(C3)
0.r	0.r	0.r	1.d	1.f
.	.	.	2c\	2e/
.	.	.	1c	1e
=93	=93	=93	=93	=93
0.r	0.r	0.r	1d	1d
.	.	.	1A	1f
.	.	.	1c	1e
=94	=94	=94	=94	=94
0.r	0.r	0.r	1B	1d
.	.	.	1A	1.f
.	.	.	[1B-	.
.	.	.	.	2e/
=95	=95	=95	=95	=95
0.r	0.r	0.r	2B-\]	0d
.	.	.	2A/	.
.	.	.	1G	.
.	.	.	1F	1f
=96	=96	=96	=96	=96
0.r	0.r	0.r	1c	2e/
.	.	.	.	2c/
.	.	.	2B-i\	1d
.	.	.	2G/	.
.	.	.	1A	1c
=97	=97	=97	=97	=97
0GG	0.r	1r	0G	0g
.	.	0E	.	.
1GG	.	.	1r	[1g
=98	=98	=98	=98	=98
1.BB-	0.r	1D	1.d	1g]
.	.	1.F	.	1f
2AA/	.	.	2c\	.
1FF	.	.	1A	[1a
.	.	2E/	.	.
=99	=99	=99	=99	=99
0AA	0.r	0C	0c	2a/]
.	.	.	.	2g/
.	.	.	.	1.e
[1GG	.	[1G	[1B	.
.	.	.	.	2d/
=100	=100	=100	=100	=100
1GG]	0.r	1G]	1B]	1.g
0C	.	0G	0c	.
.	.	.	.	2f/
.	.	.	.	2e/
.	.	.	.	2d/
=101	=101	=101	=101	=101
1D	0.r	1F	0.A	0d
0AA	.	0E	.	.
.	.	.	.	1c#i
=102	=102	=102	=102	=102
1r	0.r	0D	0.r	0d
1D	.	.	.	.
1E	.	1r	.	1r
=103	=103	=103	=103	=103
1F	0.r	0.r	1A	0d
0G	.	.	1.B-	.
.	.	.	.	1e
.	.	.	2A/	.
=104	=104	=104	=104	=104
1D	0.r	0.r	1A	1f
1r	.	.	1B-i	0g
1C	.	.	1c	.
=105	=105	=105	=105	=105
1D	0.r	1.A	1A	1d
0E-	.	.	1.c	1r
.	.	2G/	.	.
.	.	1G	.	1g
.	.	.	2d\	.
=106	=106	=106	=106	=106
1D	0.r	1A	0d	1.f
0BB-	.	0B-i	.	.
.	.	.	.	2d/
.	.	.	1d	1d
=107	=107	=107	=107	=107
1.C	0.r	1.G	1c	1.e
.	.	.	1A	.
2BB-i/	.	2E/	.	2c/
1BB-i	.	1F	1B-i	1d
=108	=108	=108	=108	=108
1C	0.r	1E	0G	1.c
0GG	.	0D	.	.
.	.	.	.	2B/
.	.	.	1r	1B
=109	=109	=109	=109	=109
0G	0.r	[0.C	1E	0.c
.	.	.	1E	.
1r	.	.	1E	.
=110	=110	=110	=110	=110
1E	0.r	0.C]	1.G	0.r
1E	.	.	.	.
.	.	.	2F/	.
1E	.	.	2E/	.
.	.	.	2D/	.
=111	=111	=111	=111	=111
1.G	0.r	0.r	0C	1e
.	.	.	.	1e
2F\	.	.	.	.
2E\	.	.	1r	1e
2D\	.	.	.	.
=112	=112	=112	=112	=112
0C	0.r	1E	1.c	1.g
.	.	1E	.	.
.	.	.	2B\	2f/
[1GG	.	1E	[1B	1e
=113	=113	=113	=113	=113
1GG]	0.r	0G	1B]	1d
1C	.	.	1c	1e
1BB	.	[1G	[1d	1d
=114	=114	=114	=114	=114
1GG	0.r	1G]	1d]	1.g
0D	.	1.A	0d	.
.	.	.	.	2f/
.	.	.	.	1f
.	.	2G/	.	.
=115	=115	=115	=115	=115
1.C	0.r	1.E	0e	1g
.	.	.	.	1e
2BB/	.	2D/	.	.
1BB	.	1D	1r	1f
=116	=116	=116	=116	=116
1C	0.r	1G	1.c	1.e
1AA	.	1A	.	.
.	.	.	2B\	2d/
1C	.	[1E	1A	1c
=117	=117	=117	=117	=117
0.GG	0.r	1E]	1G	1B
.	.	0G	0B	1.e
.	.	.	.	2d/
=118	=118	=118	=118	=118
1r	0.r	1.G	1.B	1.d
1r	.	.	.	.
.	.	2F/	2A/	2c/
1AA	.	1E	1A	1c
=119	=119	=119	=119	=119
1BB-	0.r	1D	1F	1.f
1AA	.	1C	1A	.
.	.	.	.	2e/
1GG	.	[1G	1B-i	1e
=120	=120	=120	=120	=120
1.BB-i	0.r	2G/]	1.d	1d
.	.	2F/	.	.
.	.	2D/	.	1.f
2AA/	.	2E/	2c\	.
1FF	.	[1F	1A	.
.	.	.	.	2e/
=121	=121	=121	=121	=121
1BB-i	0.r	2F/]	1G	1.d
.	.	2D/	.	.
0AA	.	0E	0A	.
.	.	.	.	2c#i/
.	.	.	.	1c#i
=122	=122	=122	=122	=122
0.Dl	0.r	0.Dl	0.Al	0.dl
!!LO:TX:i:Y=40:rj:t=Quam olim ut supra
=||	=||	=||	=||	=||
*-	*-	*-	*-	*-
!!!RDF**kern: l=long note in original notation
!!!RDF**kern: i=editorial accidental
!!!ENC:	Chris Gage 04-23-2013
!!!END:	2013/08/01/
!!!EED:	Jesse Rodin
!!!EEV:	2013/08/02/
!!!ONB:	Translated from MusicXML and edited on 2013/08/02/ by Craig Sapp
!!muse2ps: T^@{OPR}^u^@{ONM}{. }@{OTL}^C^@{COM}^i2I150v85,85,85,85,130Q16
